X:1
T:Brown Sailed Ship, The
R:strathspey
M:C|
K:D
e>d|B<EB>A B<EB>c|d>BA>G F<DB>A|B<EB>A B<EB>A|(3Bcd F>A G<E:|
z2|g>fe>f (3gab (3efg|f>ed>e (3fga (3def|g>fe>f (3gab (3efg|f>ed>f e2e>f|
g>fe>f (3gab (3efg|f>ed>e (3fga (3def|(3gab (3fga (3efg d>c|(3Bcd F>A G<E|]
